img/facebook.svg

<svg width="18" height="31" viewBox="0 0 18 31" fill="none" xmlns="http://www.w3.org/2000/svg">
<path d="M18 0H13.0909C10.921 0 8.83988 0.816515 7.30549 2.26992C5.7711 3.72333 4.90909 5.69457 4.90909 7.75V12.4H0V18.6H4.90909V31H11.4545V18.6H16.3636L18 12.4H11.4545V7.75C11.4545 7.33891 11.6269 6.94467 11.9338 6.65398C12.2407 6.3633 12.6569 6.2 13.0909 6.2H18V0Z" fill="white"/>
</svg>

<svg xmlns="http://www.w3.org/2000/svg" fill="none" viewBox="0 0 18 31"><path fill="#fff" d="M18 0h-4.91c-2.169 0-4.25.817-5.785 2.27C5.771 3.723 4.91 5.695 4.91 7.75v4.65H0v6.2h4.91V31h6.544V18.6h4.91L18 12.4h-6.546V7.75c0-.411.173-.805.48-1.096.307-.29.723-.454 1.157-.454H18V0Z"/></svg>
